src/assets/ufodt.svg

<?xml version="1.0" encoding="UTF-8"?>
<svg width="119px" height="90px" viewBox="0 0 119 90" version="1.1" xmlns="http://www.w3.org/2000/svg" xmlns:xlink="http://www.w3.org/1999/xlink">
    <!-- Generator: Sketch 54.1 (76490) - https://sketchapp.com -->
    <title>mennesker/barn/ spedbarn 0-1 år/ adopsjon</title>
    <desc>Created with Sketch.</desc>
    <defs>
        <path d="M21,7.26997787 L21,17 L0,17 L0,7.26997787 C0,4.48639876 3.43044639,1.30861036 5.72727273,0 C5.72727273,0 15.2727273,0 15.2727273,0 C17.5904231,1.33159282 21,4.51848462 21,7.26997787 Z" id="path-1"></path>
    </defs>
    <g id="Page-1-(med-SP-og-BT)" stroke="none" stroke-width="1" fill="none" fill-rule="evenodd">
        <g id="steg--3-E-inngangsvilkår" transform="translate(-738.000000, -1033.000000)">
            <g id="mennesker/barn/-spedbarn-0-1-år/-adopsjon" transform="translate(738.000000, 1033.000000)">
                <g id="Group" transform="translate(0.000000, -1.184211)">
                    <g id="krane" transform="translate(15.340000, 1.184211)" fill-rule="nonzero">
                        <path d="M59.1955776,52.792074 C63.6930462,52.167467 68.8662793,53.0298024 74.34,55.6122356 C84.2395618,60.2827255 93.7705497,71.1731557 102.932964,88.2835262 L102.932917,88.2835508 C103.238277,88.8537967 103.019128,89.5612727 102.443433,89.8637428 C102.273136,89.9532171 102.0833,90 101.890529,90 L61.4899894,89.999999 C51.5181804,89.999999 43.434432,81.9927642 43.434432,72.1153395 C43.434432,71.1715231 43.5098569,70.2291875 43.66,69.2971623 C44.2032291,65.9250242 45.3091447,62.9967637 46.8770089,60.5749682 C45.8658962,55.7617646 45.7920214,50.5464957 46.6553846,44.9291617 C47.7826525,37.5947742 50.051192,30.9458176 53.4610033,24.9822918 C47.2720112,24.220205 42.48,18.9394507 42.48,12.5383707 C42.48,5.61361978 48.0881501,0 55.0061538,0 C61.9241576,0 67.5323077,5.61361978 67.5323077,12.5383707 C67.5323077,16.2813522 65.8938068,19.6412681 63.2955974,21.938664 C61.1449391,25.9341731 59.4836289,30.8113677 58.3116667,36.5702479 C57.0038198,42.9968488 57.4835544,47.9594566 59.1955776,52.792074 Z" id="Path" fill="#E7E9E9"></path>
                        <path d="M0.914678484,13.8368172 C0.439990058,13.7813525 0.0659498278,13.4244317 0.00782471437,12.9714693 C-0.0620601471,12.4268645 0.343952115,11.9313152 0.914678484,11.8646289 L42.3105289,7.02774714 C43.0413528,6.94235431 43.7651024,7.23160534 44.2140217,7.78848982 L48.1640954,12.6885572 C48.4714887,13.0698786 48.448382,13.6065771 48.1092457,13.962553 L44.2142926,18.0509062 C43.7598358,18.5279286 43.0910892,18.7649033 42.4204993,18.6865485 L0.914678484,13.8368172 Z" id="Triangle" fill="#FFBD66"></path>
                    </g>
                    <path d="M28.32,68.6842105 C39.3988321,68.6842105 48.38,59.2791167 48.38,47.6773455 C48.38,39.9428314 41.6933333,27.9977513 28.32,11.8421053 C14.9466667,27.9977513 8.26,39.9428314 8.26,47.6773455 C8.26,59.2791167 17.2411679,68.6842105 28.32,68.6842105 Z" id="bag-bakgrunn" fill="#78706A" fill-rule="nonzero"></path>
                    <g id="spedbarn" transform="translate(12.980000, 26.052632)">
                        <g id="mennesker/X⚙️/⚙️-kropp/-barn/-blank-" transform="translate(4.720000, 27.236842)">
                            <g id="Group">
                                <g id="+20/-Blå">
                                    <mask id="mask-2" fill="white">
                                        <use xlink:href="#path-1"></use>
                                    </mask>
                                    <use id="Combined-Shape" fill="#D8A25D" xlink:href="#path-1"></use>
                                    <g id="V⚙️/STYLING/farge/-Lys-blå/+20" mask="url(#mask-2)" fill="#5EAEC7">
                                        <g transform="translate(-39.260870, -52.888889)" id="Fill-70">
                                            <polygon points="0 113 110 113 110 0 0 0"></polygon>
                                        </g>
                                    </g>
                                </g>
                            </g>
                        </g>
                        <path d="M1.20687378,13.3278025 C1.66104252,5.890708 7.81504293,0 15.34,0 C22.8649571,0 29.0189575,5.890708 29.4731262,13.3278025 C30.1933254,13.7333373 30.68,14.5069998 30.68,15.3947368 L30.68,17.7631579 C30.68,19.0712007 29.623392,20.1315789 28.32,20.1315789 C28.2855128,20.1315789 28.2511984,20.1308366 28.2170718,20.1293669 C26.6257408,23.610531 23.6740308,26.3351509 20.0449592,27.6177721 C19.8516506,30.0557353 17.8190094,31.9736842 15.34,31.9736842 C12.8609906,31.9736842 10.8283494,30.0557353 10.6350408,27.6177721 C7.0059692,26.3351509 4.0542592,23.610531 2.46292822,20.1293669 C2.42880159,20.1308366 2.39448718,20.1315789 2.36,20.1315789 C1.05660799,20.1315789 1.59619485e-16,19.0712007 0,17.7631579 L0,15.3947368 C-1.08329885e-16,14.5069998 0.486674558,13.7333373 1.20687378,13.3278025 Z" id="hode" fill="#E7E5E2"></path>
                        <g id="Spedbarn-hår" transform="translate(10.620000, 0.000000)" fill="#78706A" fill-rule="nonzero">
                            <path d="M3.24438222,1.42064888 C3.47818089,1.3034189 3.76211043,1.39751048 3.87855659,1.63080831 C3.99500276,1.86410613 3.89986976,2.14826507 3.6660711,2.26549505 C3.37479486,2.4115451 3.32892154,2.56449233 3.32755046,3.33844935 C3.32612404,4.14364541 2.89259766,4.72118517 2.10439779,4.98520434 C1.85647645,5.06824925 1.58886174,4.93490253 1.50666361,4.68736609 C1.42446549,4.43982966 1.5588107,4.17184052 1.80673205,4.08879561 C2.21515377,3.95198873 2.38099766,3.73105306 2.3816902,3.34012434 C2.38365482,2.23111929 2.51741007,1.78516307 3.24438222,1.42064888 Z" id="Path-5" transform="translate(2.705384, 3.190049) rotate(-48.000000) translate(-2.705384, -3.190049) "></path>
                            <path d="M5.2449685,1.40383433 C5.47844061,1.28653745 5.76205118,1.38083952 5.87843045,1.61446391 C5.99480972,1.8480883 5.89988721,2.13256619 5.66641511,2.24986307 C5.37554572,2.39599647 5.32977912,2.54911715 5.32866378,3.32402862 C5.32750343,4.13021765 4.8947008,4.70832582 4.10755879,4.97240866 C3.85997018,5.0554736 3.59264145,4.92187337 3.51046335,4.6740042 C3.42828525,4.42613502 3.56237696,4.15785992 3.80996557,4.07479498 C4.21783914,3.9379551 4.38340617,3.71680199 4.38396953,3.32539117 C4.38556769,2.2150185 4.51901175,1.76855654 5.2449685,1.40383433 Z" id="Path-5-Copy" transform="translate(4.707215, 3.175238) rotate(-27.000000) translate(-4.707215, -3.175238) "></path>
                            <path d="M7.244878,1.3883563 C7.47809497,1.27119179 7.76160603,1.36580801 7.87811768,1.59968754 C7.99462932,1.83356706 7.90002096,2.11814447 7.66680399,2.23530898 C7.37625247,2.38127745 7.33065151,2.53445646 7.33022549,3.30986874 C7.32978228,4.1165788 6.89777311,4.69467513 6.11137455,4.95822659 C5.86401978,5.04112439 5.59674512,4.90719909 5.51439988,4.65909607 C5.43205464,4.41099305 5.56582128,4.14266388 5.81317605,4.05976608 C6.22066439,3.92320155 6.38592788,3.70205297 6.38614306,3.31038918 C6.38675351,2.19929889 6.51971458,1.75266689 7.244878,1.3883563 Z" id="Path-5-Copy-2" transform="translate(6.709046, 3.160427) rotate(-9.000000) translate(-6.709046, -3.160427) "></path>
                        </g>
                        <g id="mennesker/X⚙️/⚙️-ansikt-barn/-smil-2" transform="translate(5.900000, 10.657895)">
                            <g id="Group" transform="translate(0.000000, 1.000000)">
                                <path d="M5.7,8.99965734 C5.7,10.6567676 4.42429182,12 2.85064074,12 C1.27634892,12 0,10.6567676 0,8.99965734 C0,7.34323244 1.27634892,6 2.85064074,6 C4.42429182,6 5.7,7.34323244 5.7,8.99965734" id="Fill-35-Copy-2" fill="#E8CCC8"></path>
                                <path d="M8.55317401,13.4459317 C7.92765932,13.4341851 7.38796231,13.0099947 7.18021053,12.4281199 L7.06245027,10.441851 L9.93535089,10.4958015 L9.88956495,12.4789992 C9.70286454,13.0534664 9.17843411,13.4576735 8.55317401,13.4459317 Z" id="Combined-Shape" fill="#FA96A0" transform="translate(8.498901, 11.944016) rotate(23.000000) translate(-8.498901, -11.944016) "></path>
                                <path d="M19,8.99965734 C19,10.6567676 17.7242918,12 16.1506407,12 C14.5763489,12 13.3,10.6567676 13.3,8.99965734 C13.3,7.34323244 14.5763489,6 16.1506407,6 C17.7242918,6 19,7.34323244 19,8.99965734" id="Fill-35-Copy-3" fill="#E8CCC8"></path>
                                <path d="M10.2827383,4.53368672 C10.0260106,4.59047694 9.77415603,4.41744198 9.72020531,4.14720231 C9.66625459,3.87696263 9.83063781,3.61185252 10.0873655,3.55506229 C10.7261025,3.41376853 11.260107,3.5224777 11.5541,4.04156898 C12.1252511,5.05145813 11.9262601,6.21522798 11.0256575,7.0213418 C10.5021799,7.48972237 9.76744165,7.65782114 9.25416383,7.33102016 C9.02969586,7.18810272 8.95779323,6.88070079 9.09356479,6.64441871 C9.22933636,6.40813664 9.5213682,6.33244965 9.74583617,6.47536709 C9.85819534,6.54690552 10.1683839,6.47593832 10.4103203,6.25946623 C10.9618332,5.76581658 11.0690457,5.13879967 10.7379544,4.55337558 C10.7068022,4.49837149 10.5691053,4.47034004 10.2827383,4.53368672 Z" id="Stroke-99-Copy" fill="#59514B" fill-rule="nonzero"></path>
                                <path d="M12.8391823,1.12126781 C12.7755567,0.853370359 12.930293,0.581903113 13.1847956,0.51492875 C13.4392982,0.447954386 13.697192,0.610834733 13.7608177,0.878732187 C14.0293256,2.00929201 14.4954982,2.5 15.2,2.5 C15.9045018,2.5 16.3706744,2.00929201 16.6391823,0.878732187 C16.702808,0.610834733 16.9607018,0.447954386 17.2152044,0.51492875 C17.469707,0.581903113 17.6244433,0.853370359 17.5608177,1.12126781 C17.1959923,2.65737466 16.3954982,3.5 15.2,3.5 C14.0045018,3.5 13.2040077,2.65737466 12.8391823,1.12126781 Z" id="Path-4-Copy-4" fill="#635E59" fill-rule="nonzero" transform="translate(15.200000, 1.999941) scale(1, -1) translate(-15.200000, -1.999941) "></path>
                                <path d="M4.28162724,3.99663698 C2.9723162,4.08689836 2.60585388,2.33994069 3.0003664,1.20081917 C3.07456371,0.98373483 3.50798457,0 4.27529332,0 C5.04169723,0 5.38010935,0.538140656 5.4271613,0.630687139 C5.99087988,1.74238748 5.71490208,3.8995203 4.28162724,3.99663698" id="Fill-95-Copy-3" fill="#635E59"></path>
                                <path d="M7.17514708,10.2236068 C7.05782719,9.97661755 7.15293376,9.67628103 7.38757354,9.5527864 C7.62221333,9.42929178 7.90753302,9.52940395 8.02485292,9.7763932 C8.25267972,10.2560286 8.71622541,10.5 9.5,10.5 C10.2837746,10.5 10.7473203,10.2560286 10.9751471,9.7763932 C11.092467,9.52940395 11.3777867,9.42929178 11.6124265,9.5527864 C11.8470662,9.67628103 11.9421728,9.97661755 11.8248529,10.2236068 C11.4193464,11.0773048 10.6162254,11.5 9.5,11.5 C8.38377459,11.5 7.58065361,11.0773048 7.17514708,10.2236068 Z" id="Path-4-Copy-2" fill="#59514B" fill-rule="nonzero" transform="translate(9.500000, 10.499945) scale(1, -1) rotate(-180.000000) translate(-9.500000, -10.499945) "></path>
                            </g>
                        </g>
                    </g>
                    <g id="hånd" transform="translate(34.220000, 50.921053)" fill="#E7E5E2">
                        <path d="M7.90782112,2.96014921 L7.90782112,5.76967279 L7.9059766,5.75674356 L7.66987841,5.75674356 L7.66987841,1.53276125 C7.66987841,1.08799544 7.32679823,0.72726968 6.90378897,0.72726968 C6.48077971,0.72726968 6.13708469,1.08799544 6.13708469,1.53276125 L6.13708469,5.75674356 L5.84626582,5.75674356 L5.84626582,0.805491574 C5.84626582,0.361372223 5.50318564,0 5.08017638,0 C4.65716712,0 4.31408694,0.361372223 4.31408694,0.805491574 L4.31408694,5.75674356 L4.02326807,5.75674356 L4.02326807,1.75708355 C4.02326807,1.31231773 3.68018789,0.95094551 3.25656379,0.95094551 C2.83355453,0.95094551 2.49047435,1.31231773 2.49047435,1.75708355 L2.49047435,7.73427062 C2.3558246,7.70711922 2.18243999,7.6411801 2.07853219,7.47374646 C1.89100629,7.16926289 1.96970568,7.24877771 1.68073134,6.4846597 C1.39175699,5.71989523 1.12307233,5.18203889 0.476876498,5.35205838 C-0.261545187,5.54599696 0.00775431206,6.78720388 0.289350592,8.38978303 C0.476876498,9.45579876 1.11139039,10.5134105 1.58789064,11.3027405 C2.06377606,12.0907776 2.97250816,13.2421263 3.2897651,13.2421263 L3.36170127,21.3157895 L8.39661815,21.3157895 L8.39661815,13.6532761 C8.39661815,13.1923488 8.81901257,13.0307333 8.81901257,13.0307333 C9.17254502,12.9020874 9.44,12.313807 9.44,11.5141336 L9.44,2.96014921 C9.44,2.5153834 9.09691982,2.15465764 8.67329572,2.15465764 C8.2509013,2.15465764 7.90782112,2.5153834 7.90782112,2.96014921 Z" id="Fill-1"></path>
                    </g>
                    <g id="bag" fill="#C6C2BF" fill-rule="nonzero">
                        <rect id="Rectangle" x="24.78" y="5.92105263" width="7.08" height="14.2105263" rx="3"></rect>
                        <path d="M27.7873326,8.54263374 C24.3906754,4.86927296 21.2730513,3.03096558 18.43446,3.02771161 C15.5958687,3.02445764 12.416484,3.93817978 8.89630571,5.76887803 C11.9681547,8.18674679 14.8660217,9.59565419 17.5899066,9.99560022 C20.3137914,10.3955463 23.7129334,9.91122409 27.7873326,8.54263374 Z" id="Path-24" transform="translate(18.341819, 6.579486) rotate(20.000000) translate(-18.341819, -6.579486) "></path>
                        <path d="M47.8465936,8.54263374 C44.4499365,4.86927296 41.3323123,3.03096558 38.493721,3.02771161 C35.6551298,3.02445764 32.475745,3.93817978 28.9555667,5.76887803 C32.0274158,8.18674679 34.9252827,9.59565419 37.6491676,9.99560022 C40.3730525,10.3955463 43.7721945,9.91122409 47.8465936,8.54263374 Z" id="Path-24-Copy" transform="translate(38.401080, 6.579486) scale(-1, 1) rotate(20.000000) translate(-38.401080, -6.579486) "></path>
                        <path d="M28.32,91.1842105 C12.6792959,91.1842105 0,77.8603276 0,61.4244851 C0,50.4672568 9.44,33.54506 28.32,10.6578947 C47.2,33.54506 56.64,50.4672568 56.64,61.4244851 C56.64,77.8603276 43.9607041,91.1842105 28.32,91.1842105 Z M28.32,66.3157895 C38.7471361,66.3157895 47.2,57.498514 47.2,46.6218535 C47.2,39.3707466 40.9066667,28.172234 28.32,13.0263158 C15.7333333,28.172234 9.44,39.3707466 9.44,46.6218535 C9.44,57.498514 17.8928639,66.3157895 28.32,66.3157895 Z"></path>
                    </g>
                </g>
            </g>
        </g>
    </g>
</svg>

<?xml version="1.0" encoding="UTF-8"?>
<svg version="1.1" viewBox="0 0 119 90" xmlns="http://www.w3.org/2000/svg" xmlns:xlink="http://www.w3.org/1999/xlink">
<title>mennesker/barn/ spedbarn 0-1 år/ adopsjon</title>
<desc>Created with Sketch.</desc>
<defs>
<path id="a" d="m21 7.27v9.73h-21v-9.73c0-2.7836 3.4304-5.9614 5.7273-7.27h9.5455c2.3177 1.3316 5.7273 4.5185 5.7273 7.27z"/>
</defs>
<g fill="none" fill-rule="evenodd">
<g transform="translate(-738 -1033)">
<g transform="translate(738 1033)">
<g id="Group" transform="translate(0 -1.1842)">
<g transform="translate(15.34 1.1842)" fill-rule="nonzero">
<path d="m59.196 52.792c4.4975-0.62461 9.6707 0.23773 15.144 2.8202 9.8996 4.6705 19.431 15.561 28.593 32.671l-4.7e-5 2.46e-5c0.30536 0.57025 0.086211 1.2777-0.48948 1.5802-0.1703 0.089474-0.36013 0.13626-0.5529 0.13626l-40.401-1e-6c-9.9718 0-18.056-8.0072-18.056-17.885 0-0.94382 0.075425-1.8862 0.22557-2.8182 0.54323-3.3721 1.6491-6.3004 3.217-8.7222-1.0111-4.8132-1.085-10.028-0.22162-15.646 1.1273-7.3344 3.3958-13.983 6.8056-19.947-6.189-0.76209-10.981-6.0428-10.981-12.444 0-6.9248 5.6082-12.538 12.526-12.538 6.918 0 12.526 5.6136 12.526 12.538 0 3.743-1.6385 7.1029-4.2367 9.4003-2.1507 3.9955-3.812 8.8727-4.9839 14.632-1.3078 6.4266-0.82811 11.389 0.88391 16.222z" fill="#E7E9E9"/>
<path d="m0.91468 13.837c-0.47469-0.055465-0.84873-0.41239-0.90685-0.86535-0.069885-0.5446 0.33613-1.0402 0.90685-1.1068l41.396-4.8369c0.73082-0.085393 1.4546 0.20386 1.9035 0.76074l3.9501 4.9001c0.30739 0.38132 0.28429 0.91802-0.05485 1.274l-3.895 4.0884c-0.45446 0.47702-1.1232 0.714-1.7938 0.63564l-41.506-4.8497z" fill="#FFBD66"/>
</g>
<path d="m28.32 68.684c11.079 0 20.06-9.4051 20.06-21.007 0-7.7345-6.6867-19.68-20.06-35.835-13.373 16.156-20.06 28.101-20.06 35.835 0 11.602 8.9812 21.007 20.06 21.007z" fill="#78706A" fill-rule="nonzero"/>
<g transform="translate(12.98 26.053)">
<g transform="translate(4.72 27.237)">
<g id="d">
<mask id="b" fill="white">
<use xlink:href="#a"/>
</mask>
<use id="c" fill="#D8A25D" xlink:href="#a"/>
<g fill="#5EAEC7" mask="url(#b)">
<g transform="translate(-39.261 -52.889)">
<polygon points="0 113 110 113 110 0 0 0"/>
</g>
</g>
</g>
</g>
<path d="m1.2069 13.328c0.45417-7.4371 6.6082-13.328 14.133-13.328 7.525 0 13.679 5.8907 14.133 13.328 0.7202 0.40553 1.2069 1.1792 1.2069 2.0669v2.3684c0 1.308-1.0566 2.3684-2.36 2.3684-0.034487 0-0.068802-7.423e-4 -0.10293-0.002212-1.5913 3.4812-4.543 6.2058-8.1721 7.4884-0.19331 2.438-2.2259 4.3559-4.705 4.3559s-4.5117-1.9179-4.705-4.3559c-3.6291-1.2826-6.5808-4.0072-8.1721-7.4884-0.034127 0.0014697-0.068441 0.002212-0.10293 0.002212-1.3034 0-2.36-1.0604-2.36-2.3684v-2.3684c-1.0833e-16 -0.88774 0.48667-1.6614 1.2069-2.0669z" fill="#E7E5E2"/>
<g transform="translate(10.62)" fill="#78706A" fill-rule="nonzero">
<path transform="translate(2.7054 3.19) rotate(-48) translate(-2.7054 -3.19)" d="m3.2444 1.4206c0.2338-0.11723 0.51773-0.023138 0.63417 0.21016 0.11645 0.2333 0.021313 0.51746-0.21249 0.63469-0.29128 0.14605-0.33715 0.299-0.33852 1.073-0.0014264 0.8052-0.43495 1.3827-1.2232 1.6468-0.24792 0.083045-0.51554-0.050302-0.59773-0.29784-0.082198-0.24754 0.052147-0.51553 0.30007-0.59857 0.40842-0.13681 0.57427-0.35774 0.57496-0.74867 0.0019646-1.109 0.13572-1.555 0.86269-1.9195z"/>
<path transform="translate(4.7072 3.1752) rotate(-27) translate(-4.7072 -3.1752)" d="m5.245 1.4038c0.23347-0.1173 0.51708-0.022995 0.63346 0.21063s0.021457 0.5181-0.21202 0.6354c-0.29087 0.14613-0.33664 0.29925-0.33775 1.0742-0.0011604 0.80619-0.43396 1.3843-1.2211 1.6484-0.24759 0.083065-0.51492-0.050535-0.5971-0.2984-0.082178-0.24787 0.051914-0.51614 0.2995-0.59921 0.40787-0.13684 0.57344-0.35799 0.574-0.7494 0.0015982-1.1104 0.13504-1.5568 0.861-1.9216z"/>
<path transform="translate(6.709 3.1604) rotate(-9) translate(-6.709 -3.1604)" d="m7.2449 1.3884c0.23322-0.11716 0.51673-0.022548 0.63324 0.21133 0.11651 0.23388 0.021903 0.51846-0.21131 0.63562-0.29055 0.14597-0.33615 0.29915-0.33658 1.0746-4.4321e-4 0.80671-0.43245 1.3848-1.2189 1.6484-0.24735 0.082898-0.51463-0.051028-0.59697-0.29913s0.051421-0.51643 0.29878-0.59933c0.40749-0.13656 0.57275-0.35771 0.57297-0.74938 6.1045e-4 -1.1111 0.13357-1.5577 0.85873-1.922z"/>
</g>
<g transform="translate(5.9 10.658)">
<g transform="translate(0 1)">
<path d="m5.7 8.9997c0 1.6571-1.2757 3.0003-2.8494 3.0003-1.5743 0-2.8506-1.3432-2.8506-3.0003 0-1.6564 1.2763-2.9997 2.8506-2.9997 1.5737 0 2.8494 1.3432 2.8494 2.9997" fill="#E8CCC8"/>
<path transform="translate(8.4989 11.944) rotate(23) translate(-8.4989 -11.944)" d="m8.5532 13.446c-0.62551-0.011747-1.1652-0.43594-1.373-1.0178l-0.11776-1.9863 2.8729 0.05395-0.045786 1.9832c-0.1867 0.57447-0.71113 0.97867-1.3364 0.96693z" fill="#FA96A0"/>
<path d="m19 8.9997c0 1.6571-1.2757 3.0003-2.8494 3.0003-1.5743 0-2.8506-1.3432-2.8506-3.0003 0-1.6564 1.2763-2.9997 2.8506-2.9997 1.5737 0 2.8494 1.3432 2.8494 2.9997" fill="#E8CCC8"/>
<path d="m10.283 4.5337c-0.25673 0.05679-0.50858-0.11624-0.56253-0.38648-0.053951-0.27024 0.11043-0.53535 0.36716-0.59214 0.63874-0.14129 1.1727-0.032585 1.4667 0.48651 0.57115 1.0099 0.37216 2.1737-0.52844 2.9798-0.52348 0.46838-1.2582 0.63648-1.7715 0.30968-0.22447-0.14292-0.29637-0.45032-0.1606-0.6866 0.13577-0.23628 0.4278-0.31197 0.65227-0.16905 0.11236 0.071538 0.42255 5.7123e-4 0.66448-0.2159 0.55151-0.49365 0.65873-1.1207 0.32763-1.7061-0.031152-0.055004-0.16885-0.083036-0.45522-0.019689z" fill="#59514B" fill-rule="nonzero"/>
<path transform="translate(15.2 1.9999) scale(1 -1) translate(-15.2 -1.9999)" d="m12.839 1.1213c-0.063626-0.2679 0.091111-0.53936 0.34561-0.60634 0.2545-0.066974 0.5124 0.095906 0.57602 0.3638 0.26851 1.1306 0.73468 1.6213 1.4392 1.6213s1.1707-0.49071 1.4392-1.6213c0.063626-0.2679 0.32152-0.43078 0.57602-0.3638 0.2545 0.066974 0.40924 0.33844 0.34561 0.60634-0.36483 1.5361-1.1653 2.3787-2.3608 2.3787s-1.996-0.84263-2.3608-2.3787z" fill="#635E59" fill-rule="nonzero"/>
<path d="m4.2816 3.9966c-1.3093 0.090261-1.6758-1.6567-1.2813-2.7958 0.074197-0.21708 0.50762-1.2008 1.2749-1.2008 0.7664 0 1.1048 0.53814 1.1519 0.63069 0.56372 1.1117 0.28774 3.2688-1.1455 3.3659" fill="#635E59"/>
<path transform="translate(9.5 10.5) scale(1 -1) rotate(180) translate(-9.5 -10.5)" d="m7.1751 10.224c-0.11732-0.24699-0.022213-0.54733 0.21243-0.67082 0.23464-0.12349 0.51996-0.023382 0.63728 0.22361 0.22783 0.47964 0.69137 0.72361 1.4751 0.72361 0.78377 0 1.2473-0.24397 1.4751-0.72361 0.11732-0.24699 0.40264-0.3471 0.63728-0.22361 0.23464 0.12349 0.32975 0.42383 0.21243 0.67082-0.40551 0.8537-1.2086 1.2764-2.3249 1.2764-1.1162 0-1.9193-0.4227-2.3249-1.2764z" fill="#59514B" fill-rule="nonzero"/>
</g>
</g>
</g>
<g transform="translate(34.22 50.921)" fill="#E7E5E2">
<path d="m7.9078 2.9601v2.8095l-0.0018445-0.012929h-0.2361v-4.224c0-0.44477-0.34308-0.80549-0.76609-0.80549s-0.7667 0.36073-0.7667 0.80549v4.224h-0.29082v-4.9513c0-0.44412-0.34308-0.80549-0.76609-0.80549s-0.76609 0.36137-0.76609 0.80549v4.9513h-0.29082v-3.9997c0-0.44477-0.34308-0.80614-0.7667-0.80614-0.42301 0-0.76609 0.36137-0.76609 0.80614v5.9772c-0.13465-0.027151-0.30803-0.093091-0.41194-0.26052-0.18753-0.30448-0.10883-0.22497-0.3978-0.98909-0.28897-0.76476-0.55766-1.3026-1.2039-1.1326-0.73842 0.19394-0.46912 1.4351-0.18753 3.0377 0.18753 1.066 0.82204 2.1236 1.2985 2.913 0.47589 0.78804 1.3846 1.9394 1.7019 1.9394l0.071936 8.0737h5.0349v-7.6625c0-0.46093 0.42239-0.62254 0.42239-0.62254 0.35353-0.12865 0.62099-0.71693 0.62099-1.5166v-8.554c0-0.44477-0.34308-0.80549-0.7667-0.80549-0.42239 0-0.76547 0.36073-0.76547 0.80549z"/>
</g>
<g fill="#C6C2BF" fill-rule="nonzero">
<rect x="24.78" y="5.9211" width="7.08" height="14.211" rx="3"/>
<path transform="translate(18.342 6.5795) rotate(20) translate(-18.342 -6.5795)" d="m27.787 8.5426c-3.3967-3.6734-6.5143-5.5117-9.3529-5.5149s-6.018 0.91047-9.5382 2.7412c3.0718 2.4179 5.9697 3.8268 8.6936 4.2267 2.7239 0.39995 6.123-0.084376 10.197-1.453z"/>
<path transform="translate(38.401 6.5795) scale(-1 1) rotate(20) translate(-38.401 -6.5795)" d="m47.847 8.5426c-3.3967-3.6734-6.5143-5.5117-9.3529-5.5149-2.8386-0.003254-6.018 0.91047-9.5382 2.7412 3.0718 2.4179 5.9697 3.8268 8.6936 4.2267 2.7239 0.39995 6.123-0.084376 10.197-1.453z"/>
<path d="m28.32 91.184c-15.641 0-28.32-13.324-28.32-29.76 0-10.957 9.44-27.879 28.32-50.767 18.88 22.887 28.32 39.809 28.32 50.767 0 16.436-12.679 29.76-28.32 29.76zm0-24.868c10.427 0 18.88-8.8173 18.88-19.694 0-7.2511-6.2933-18.45-18.88-33.596-12.587 15.146-18.88 26.344-18.88 33.596 0 10.877 8.4529 19.694 18.88 19.694z"/>
</g>
</g>
</g>
</g>
</g>
</svg>
